_site/assets/img/sponsors/continuum-logo.svg

<?xml version="1.0" encoding="UTF-8" standalone="no"?>
<svg width="233px" height="121px" viewBox="0 0 233 121" version="1.1" xmlns="http://www.w3.org/2000/svg" xmlns:xlink="http://www.w3.org/1999/xlink">
    <!-- Generator: Sketch 41.2 (35397) - http://www.bohemiancoding.com/sketch -->
    <title>Group 17</title>
    <desc>Created with Sketch.</desc>
    <defs>
        <path d="M56.4585984,0.0811758313 L56.4585984,2.38828662 L56.4585984,2.41841534 L56.4585984,14.0370184 C56.4585984,15.7467063 56.888037,17.0573838 57.748303,17.9757634 C58.6076431,18.8918015 59.8450373,19.3515377 61.4601769,19.3515377 L65.4556686,19.3515377 L65.4556686,15.9718131 L63.6589087,15.9718131 C62.6128561,15.9718131 61.8815915,15.7271929 61.4601769,15.2404501 C61.0404597,14.7524585 60.8316813,13.8796622 60.8316813,12.6220612 L60.8316813,6.45379081 L65.4556686,6.45379081 L65.4556686,2.38828662 L60.8316813,2.38828662 L60.8316813,0.0811758313 L56.4585984,0.0811758313 Z M18.9678226,4.49636052 C17.3704283,6.09302668 16.5721941,8.22420447 16.5721941,10.8855229 C16.5721941,13.5365382 17.3704283,15.6586618 18.9678226,17.2509569 C20.5653712,18.8438765 22.7057746,19.6415851 25.387644,19.6415851 C28.0701307,19.6415851 30.2018929,18.8462181 31.7833935,17.2595428 C33.3669,15.6716187 34.1577275,13.5471535 34.1577275,10.8855229 C34.1577275,8.22420447 33.3610363,6.09302668 31.7687342,4.49636052 C30.1779752,2.89797718 28.0506879,2.09917578 25.387644,2.09917578 C22.7057746,2.09917578 20.5653712,2.89797718 18.9678226,4.49636052 Z M22.270318,14.6523937 C21.5339612,13.7491564 21.1662457,12.4917116 21.1662457,10.876937 C21.1662457,9.27277766 21.5361215,8.02079657 22.2789592,7.12021316 C23.021334,6.21791257 24.0467093,5.76801114 25.3569368,5.76801114 C26.67704,5.76801114 27.7090505,6.21557096 28.4514253,7.11303222 C29.194263,8.00768355 29.5641388,9.26434786 29.5641388,10.876937 C29.5641388,12.4917116 29.1914855,13.7491564 28.4441728,14.6523937 C27.6965516,15.5532893 26.669016,16.0031907 25.3569368,16.0031907 C24.0372965,16.0031907 23.0066748,15.5532893 22.270318,14.6523937 Z M135.871561,2.38828662 L135.871561,19.3515377 L140.275506,19.3515377 L140.275506,6.12112601 L145.403771,6.12112601 L145.403771,19.3515377 L149.870364,19.3515377 L149.870364,6.12112601 L152.327253,6.12112601 C153.474994,6.12112601 154.232028,6.3201629 154.602521,6.71901722 C154.970083,7.11740323 155.155561,7.93946463 155.155561,9.18598196 L155.155561,19.3515377 L159.559042,19.3515377 L159.559042,8.60401369 C159.559042,6.41179792 159.022514,4.82746425 157.94668,3.85148098 C156.872543,2.87612215 155.118064,2.38828662 152.682778,2.38828662 L135.871561,2.38828662 Z M127.569339,2.38828662 L127.569339,15.6172933 L124.055596,15.6172933 C122.908781,15.6172933 122.144186,15.4284034 121.760422,15.051248 C121.37635,14.6729998 121.187014,13.9175963 121.187014,12.7864423 L121.187014,2.38828662 L116.812697,2.38828662 L116.812697,13.1472064 C116.812697,15.3153817 117.354935,16.8901928 118.435244,17.8755425 C119.517404,18.8582384 121.272964,19.3515377 123.703466,19.3515377 L131.943502,19.3515377 L131.943502,2.38828662 L127.569339,2.38828662 Z M108.637933,2.38828662 L108.637933,15.6172933 L105.122956,15.6172933 C103.977529,15.6172933 103.211854,15.4284034 102.828245,15.051248 C102.443401,14.6729998 102.25314,13.9175963 102.25314,12.7864423 L102.25314,2.38828662 L97.8814454,2.38828662 L97.8814454,13.1472064 C97.8814454,15.3153817 98.4213684,16.8901928 99.5024488,17.8755425 C100.58214,18.8582384 102.340632,19.3515377 104.7699,19.3515377 L113.01009,19.3515377 L113.01009,2.38828662 L108.637933,2.38828662 Z M79.1466276,2.38828662 L79.1466276,19.3515377 L83.5206363,19.3515377 L83.5206363,6.12112601 L87.0434832,6.12112601 C88.2037235,6.12112601 88.9740281,6.31032814 89.3582545,6.68748354 C89.7441783,7.06448283 89.9372173,7.88623201 89.9372173,9.15444827 L89.9372173,19.3515377 L94.3078312,19.3515377 L94.3078312,8.60401369 C94.3078312,6.37963981 93.7779383,4.7884374 92.7110542,3.82728434 C91.6472563,2.86862899 89.8693219,2.38828662 87.3818802,2.38828662 L79.1466276,2.38828662 Z M70.0745638,19.3515377 L74.6669181,19.3515377 L74.6669181,2.38828662 L70.0745638,2.38828662 L70.0745638,19.3515377 Z M36.8274066,2.38828662 L36.8274066,19.3515377 L41.1991007,19.3515377 L41.1991007,6.12112601 L44.7242623,6.12112601 C45.8828052,6.12112601 46.6557329,6.31032814 47.0402679,6.68748354 C47.4251116,7.06448283 47.6167618,7.88623201 47.6167618,9.15444827 L47.6167618,19.3515377 L51.9898447,19.3515377 L51.9898447,8.60401369 C51.9898447,6.37963981 51.4570199,4.7884374 50.3915246,3.82728434 C49.3275724,2.86862899 47.5513353,2.38828662 45.0628136,2.38828662 L36.8274066,2.38828662 Z M8.84307103,2.38828662 C7.37004883,2.38828662 6.14314757,2.54782835 5.16622493,2.86628738 C4.18945659,3.18708802 3.33798619,3.70380341 2.61073356,4.4154969 C1.83317659,5.18042301 1.22906158,6.1315852 0.799160063,7.26898348 C0.369721473,8.40685009 0.15384487,9.63026353 0.15384487,10.9398482 C0.15384487,12.1866778 0.37203609,13.3701277 0.806875452,14.4861393 C1.24217774,15.6012142 1.84305229,16.5475371 2.61073356,17.3237029 C3.32718464,18.0355525 4.1676992,18.5527363 5.13582629,18.8713514 C6.10302754,19.190591 7.33826143,19.3515377 8.84307103,19.3515377 L14.7811435,19.3515377 L14.7811435,15.7131432 L10.1316954,15.7131432 C9.0166673,15.7131432 8.24204218,15.6716187 7.80797435,15.5870085 C7.37359791,15.5044277 6.99261197,15.3620578 6.66393637,15.163177 C6.00025855,14.7460581 5.50878823,14.1971846 5.19091417,13.5156198 C4.87504612,12.8362405 4.7162634,11.97765 4.7162634,10.9398482 C4.7162634,9.14039861 5.10342166,7.87639725 5.88097863,7.14768806 C6.65915283,6.42132047 8.07523545,6.05680977 10.1316954,6.05680977 L14.7811435,6.05680977 L14.7811435,2.38828662 L8.84307103,2.38828662 Z" id="path-1"></path>
        <path d="M6.42367914,3.74064475 C5.52684224,4.4218973 4.99185712,5.53119626 4.99185712,6.74430662 C4.99185712,7.30660536 5.11700074,7.83955591 5.33904966,8.31802499 L5.32932826,8.32114714 C5.84255599,9.4601065 6.43463499,10.5545753 7.10340497,11.5962797 L7.10556528,11.6128271 C7.4624792,12.3195252 7.26928585,13.3201734 6.47460071,13.5399726 C4.26969665,14.1484791 2.28838458,17.5586445 2.19641713,19.9628541 C2.06124351,23.4337453 2.0532195,24.2292685 0.16156026,26.2572593 C0.0618774252,26.3573241 0,26.4926692 0,26.6451861 C0,26.94741 0.244886468,27.1928107 0.548564206,27.1928107 C0.653956429,27.1928107 0.753793571,27.1623698 0.837428395,27.11023 C2.59406832,26.2486734 3.85985515,25.6094137 4.42431306,23.1294921 C4.98691927,20.6494143 6.22709101,18.5052796 8.91883616,18.3888235 C10.2543701,18.331376 10.5774906,19.5377737 10.4958618,20.3225255 C10.2372419,22.828361 9.78002795,24.3293333 7.12500806,26.0930343 C3.10235819,28.7816715 2.7144284,30.2965374 2.17666574,32.6311231 C2.108616,32.9267905 2.17064773,33.2310437 2.44608714,33.3568663 C2.68402976,33.4658292 2.95700025,33.3907416 3.10729604,33.1929535 C5.23072558,29.7284627 6.81716401,30.4215794 9.80039658,29.4943017 C12.2264237,28.7415519 14.9249584,27.239643 16.7565919,22.8664512 C16.9124428,22.5239516 17.4233559,21.7687041 18.1084825,21.8417624 C18.9226104,21.9274653 19.2045308,22.7902708 19.1374069,23.2698326 C18.7735491,27.165492 15.4479075,30.7323892 11.8633375,31.9312938 L11.8573195,31.9312938 C11.6402084,32.0038837 11.4823515,32.2094771 11.4823515,32.4515997 C11.4823515,32.7538235 11.7045548,32.9961022 12.0065351,32.9961022 C17.2903426,33.4268024 22.4196879,29.2206455 22.967172,23.9693497 C23.0798167,23.1852224 23.8055262,22.6415004 24.5881754,22.7545222 L24.5870952,22.7574882 C26.099003,23.1750754 28.0357201,23.2161317 28.0357201,23.2161317 C29.7062563,23.2161317 31.1212587,22.1151064 31.593132,20.5978989 L31.5989956,20.5790099 C31.597144,20.5854103 31.595138,20.5916546 31.593132,20.5978989 L31.5909716,20.6050798 C32.0758067,19.0863112 32.3379757,17.4681023 32.3379757,15.7893236 C32.3379757,7.08103021 25.2859552,0.021230602 16.5859275,0.021230602 C12.7128019,0.021230602 9.16727171,1.42026483 6.42367914,3.74064475 Z" id="path-3"></path>
    </defs>
    <g id="Page-1" stroke="none" stroke-width="1" fill="none" fill-rule="evenodd">
        <g id="Artboard-2" transform="translate(-119.000000, -1086.000000)">
            <g id="Group-17" transform="translate(119.000000, 1086.000000)">
                <rect id="Rectangle-3" fill="#FFFFFF" x="1.42108547e-14" y="0" width="233" height="121"></rect>
                <g id="Group-4" transform="translate(16.000000, 43.000000)">
                    <g id="Group-3" transform="translate(41.508796, 6.712617)">
                        <mask id="mask-2" fill="white">
                            <use xlink:href="#path-1"></use>
                        </mask>
                        <g id="Clip-2"></g>
                        <polygon id="Fill-1" fill="#757684" mask="url(#mask-2)" points="-0.617694097 20.422122 160.330581 20.422122 160.330581 -0.699361008 -0.617694097 -0.699361008"></polygon>
                    </g>
                    <g id="Group-6">
                        <mask id="mask-4" fill="white">
                            <use xlink:href="#path-3"></use>
                        </mask>
                        <g id="Clip-5"></g>
                        <polygon id="Fill-4" fill="#65BB45" mask="url(#mask-4)" points="-0.771538968 34.1875136 33.1095146 34.1875136 33.1095146 -0.759306238 -0.771538968 -0.759306238"></polygon>
                    </g>
                </g>
            </g>
        </g>
    </g>
</svg>

<svg width="233" height="121" xmlns="http://www.w3.org/2000/svg" xmlns:xlink="http://www.w3.org/1999/xlink"><title>Group 17</title><defs><path d="M56.459.081v13.956c0 1.71.429 3.02 1.29 3.939.859.916 2.096 1.376 3.711 1.376h3.996v-3.38h-1.797c-1.046 0-1.777-.245-2.199-.732-.42-.488-.628-1.36-.628-2.618V6.454h4.624V2.388h-4.624V.081h-4.373zM18.968 4.496c-1.598 1.597-2.396 3.728-2.396 6.39 0 2.65.798 4.773 2.396 6.365 1.597 1.593 3.738 2.39 6.42 2.39s4.814-.795 6.395-2.381c1.584-1.588 2.375-3.713 2.375-6.374 0-2.662-.797-4.793-2.39-6.39-1.59-1.598-3.717-2.397-6.38-2.397-2.682 0-4.823.799-6.42 2.397zm3.302 10.156c-.736-.903-1.104-2.16-1.104-3.775 0-1.604.37-2.856 1.113-3.757.742-.902 1.768-1.352 3.078-1.352 1.32 0 2.352.448 3.094 1.345.743.895 1.113 2.151 1.113 3.764 0 1.615-.373 2.872-1.12 3.775-.747.901-1.775 1.351-3.087 1.351-1.32 0-2.35-.45-3.087-1.35zM135.872 2.388v16.964h4.404V6.122h5.128v13.23h4.466V6.122h2.457c1.148 0 1.905.198 2.276.597.367.398.553 1.22.553 2.467v10.166h4.403V8.604c0-2.192-.536-3.777-1.612-4.753-1.074-.975-2.829-1.463-5.264-1.463h-16.811zm-8.303 0v13.23h-3.513c-1.147 0-1.912-.19-2.296-.567-.384-.378-.573-1.133-.573-2.265V2.388h-4.374v10.76c0 2.167.542 3.742 1.622 4.728 1.082.982 2.838 1.476 5.268 1.476h8.24V2.388h-4.374zm-18.931 0v13.23h-3.515c-1.145 0-1.911-.19-2.295-.567-.385-.378-.575-1.133-.575-2.265V2.388h-4.372v10.76c0 2.167.54 3.742 1.621 4.728 1.08.982 2.839 1.476 5.268 1.476h8.24V2.388h-4.372zm-29.491 0v16.964h4.374V6.122h3.522c1.16 0 1.931.188 2.315.565.386.377.58 1.2.58 2.467v10.198h4.37V8.604c0-2.224-.53-3.816-1.597-4.777-1.064-.958-2.842-1.439-5.33-1.439h-8.234zm-9.072 16.964h4.592V2.388h-4.592v16.964zM36.827 2.388v16.964H41.2V6.122h3.525c1.159 0 1.932.188 2.316.565.385.377.577 1.2.577 2.467v10.198h4.373V8.604c0-2.224-.533-3.816-1.598-4.777-1.064-.958-2.84-1.439-5.33-1.439h-8.235zm-27.984 0c-1.473 0-2.7.16-3.677.478a6.508 6.508 0 0 0-2.555 1.55C1.833 5.18 1.229 6.131.799 7.268a10.327 10.327 0 0 0-.645 3.671c0 1.248.218 2.431.653 3.547.435 1.115 1.036 2.062 1.804 2.838a6.351 6.351 0 0 0 2.525 1.547c.967.32 2.202.48 3.707.48h5.938v-3.638h-4.65c-1.114 0-1.889-.041-2.323-.126a3.426 3.426 0 0 1-1.144-.424 3.832 3.832 0 0 1-1.473-1.647c-.316-.68-.475-1.538-.475-2.576 0-1.8.387-3.064 1.165-3.792.778-.727 2.194-1.091 4.25-1.091h4.65V2.388H8.843z" id="a"/><path d="M6.424 3.74c-.897.682-1.432 1.791-1.432 3.004 0 .563.125 1.096.347 1.574l-.01.003a25.293 25.293 0 0 0 1.774 3.275l.003.017c.356.707.163 1.707-.631 1.927-2.205.608-4.187 4.019-4.279 6.423-.135 3.47-.143 4.266-2.034 6.294a.546.546 0 0 0 .387.936c.105 0 .205-.03.288-.083 1.757-.861 3.023-1.5 3.587-3.98.563-2.48 1.803-4.625 4.495-4.741 1.335-.058 1.658 1.149 1.577 1.934-.259 2.505-.716 4.006-3.371 5.77-4.023 2.689-4.41 4.204-4.948 6.538-.068.296-.006.6.27.726.237.109.51.034.66-.164 2.124-3.465 3.71-2.771 6.693-3.699 2.426-.752 5.125-2.254 6.957-6.628.155-.342.666-1.097 1.351-1.024.815.085 1.097.948 1.03 1.428-.364 3.895-3.69 7.462-7.275 8.661h-.006a.55.55 0 0 0-.375.52c0 .303.223.545.525.545 5.283.43 10.413-3.775 10.96-9.027a1.432 1.432 0 0 1 1.621-1.214v.002c1.511.418 3.448.46 3.448.46a3.727 3.727 0 0 0 3.557-2.62l.006-.018-.006.019-.002.007a15.81 15.81 0 0 0 .747-4.816c0-8.708-7.052-15.768-15.752-15.768a15.682 15.682 0 0 0-10.162 3.72z" id="c"/></defs><g fill="none" fill-rule="evenodd"><path fill="#FFF" d="M0 0h233v121H0z"/><g transform="translate(57.509 49.713)"><mask id="b" fill="#fff"><use xlink:href="#a"/></mask><path fill="#757684" mask="url(#b)" d="M-.618 20.422h160.949V-.699H-.618z"/></g><g transform="translate(16 43)"><mask id="d" fill="#fff"><use xlink:href="#c"/></mask><path fill="#65BB45" mask="url(#d)" d="M-.772 34.188H33.11V-.76H-.772z"/></g></g></svg>
